X: 1
T: Melisso    [Dm]
S: Handout at Sladkaevent.
Z: 2018 John Chambers <jc:trillian.mit.edu>
L: 1/8
M: 7/8
K: Dm
|: "Dm"CD DC FEC | DC GC ~F2E |\
[1 "Dm"CD DC FEC | ~D2 DA, ~D2A, :|\
[2 "Bb"CD DC "C"FEC | "Dm"~D2 DA, ~D2z :|
|: "Dm"D4 G2 | "F"G2 F2-F3 | "Gm"G2 G2 "F"~F3 \
::  "C"E4 F3 | "Dm"E2 D2- D3 |\
[1 "Gm"G2 G2 "F"~F3 :|[2 "C"C2 C2 "Dm"D3 :|

%%sep 1 1 500

%%sep 1 1 500

